X:5
T:The Field Town Processional
A:Field Town
O:English
S:Bacon (MDT)
R:reel
M:2/2
L:1/8
Q:1/2=72
K:G
P:A
c | BABG AA A2 | cB/B/ Ac BG G2 | B/c/d ef gdec | BGAF G2 G :|
P:B
z | g2 gf fe e2 | a2 ag fd d2 | gfgf edeg | fde^c d2 d=c |
BABG AA A2 | cB/B/ Ac BG G2 | B/c/d ef gdec | BGAF G2 G |]
